wire-ios/Wire-iOS/Resources/Images/Images.xcassets/Folders Outline.imageset/Folders Outline.svg

<svg fill="none" height="22" viewBox="0 0 16 16" width="22" xmlns="http://www.w3.org/2000/svg"><g stroke="#34373d" stroke-width="1.25"><path d="m5.41571 2.22217h-3.0824c-.55228 0-1 .44771-1 1v9.00003c0 1.1045.89543 2 2 2h9.33329c1.1046 0 2-.8955 2-2v-5.77781c0-1.10457-.8954-2-2-2h-3.86013c-.23393 0-.46047-.08202-.64018-.23178l-2.1104-1.75866c-.17971-.14977-.40625-.23178-.64018-.23178z"/><path d="m9.51392 2.04163h4.08328" stroke-linecap="round"/></g></svg>

<svg width="16" height="16" viewBox="0 0 16 16" fill="none" xmlns="http://www.w3.org/2000/svg">
<path d="M5.41571 2.22217H2.33331C1.78103 2.22217 1.33331 2.66988 1.33331 3.22217V12.2222C1.33331 13.3267 2.22874 14.2222 3.33331 14.2222H12.6666C13.7712 14.2222 14.6666 13.3267 14.6666 12.2222V6.44439C14.6666 5.33982 13.7712 4.44439 12.6666 4.44439H8.80647C8.57254 4.44439 8.346 4.36237 8.16629 4.21261L6.05589 2.45395C5.87618 2.30418 5.64964 2.22217 5.41571 2.22217Z" stroke="#34373D" stroke-width="1.25"/>
<line x1="9.51392" y1="2.04163" x2="13.5972" y2="2.04163" stroke="#34373D" stroke-width="1.25" stroke-linecap="round"/>
</svg>
